lib/flags/mw-malawi.svg

<svg xmlns="http://www.w3.org/2000/svg" fill="none" aria-hidden="true" viewBox="0 0 42 30"><g id="Country=MW - Malawi, Size=sm (36x24)" filter="url(#filter0_dd_91_26277)"><g clip-path="url(#clip0_91_26277)"><g id="flag"><mask id="mask0_91_26277" width="36" height="24" x="3" y="2" maskUnits="userSpaceOnUse" style="mask-type:alpha"><rect id="mask" width="36" height="24" x="3" y="2" fill="white"/></mask><g mask="url(#mask0_91_26277)"><g id="contents"><path id="background" fill="#E11C1B" fill-rule="evenodd" d="M3 2V26H39V2H3Z" clip-rule="evenodd"/><mask id="mask1_91_26277" width="36" height="24" x="3" y="2" maskUnits="userSpaceOnUse" style="mask-type:alpha"><path id="background_2" fill="white" fill-rule="evenodd" d="M3 2V26H39V2H3Z" clip-rule="evenodd"/></mask><g mask="url(#mask1_91_26277)"><path id="top" fill="#272727" fill-rule="evenodd" d="M3 2V12H39V2H3Z" clip-rule="evenodd"/><path id="bottom" fill="#5EAA22" fill-rule="evenodd" d="M3 18V26H39V18H3Z" clip-rule="evenodd"/><g id="mark"><path id="mark_2" fill="#E11C1B" fill-rule="evenodd" d="M7.5018 13.946V13.9435L7.49121 13.9451L7.5018 13.946ZM8.20876 10.1269H8.32466L8.14703 10.1027L8.20876 10.1269ZM11.5022 10.1269C11.5611 10.0263 11.6226 9.92671 11.6866 9.82829L9.11101 8.31278L12.1489 9.19121C12.3188 8.98003 12.501 8.77527 12.6946 8.57752L10.4622 6.68821L13.3071 8.00783C13.5158 7.8307 13.7346 7.66066 13.9627 7.49827L12.1572 5.28122L14.707 7.01512C14.9442 6.87496 15.1894 6.74236 15.4419 6.61779L14.1414 4.13705L16.2954 6.23876C16.5521 6.13673 16.815 6.04255 17.0834 5.95663L16.3513 3.29245L18.0191 5.6964C18.2876 5.63261 18.5607 5.57682 18.8379 5.52939L18.7156 2.77459L19.825 5.39799C20.0989 5.37174 20.3761 5.35354 20.6561 5.34371L21.1584 2.6001L21.6609 5.34451C21.9405 5.35478 22.2174 5.3734 22.491 5.40005L23.6012 2.77459L23.4787 5.53318C23.7549 5.58092 24.027 5.63696 24.2946 5.70094L25.9656 3.29245L25.2316 5.96318C25.4985 6.0491 25.7598 6.14319 26.015 6.24504L28.1754 4.13705L26.8703 6.62651C27.1209 6.75063 27.3641 6.88266 27.5995 7.02215L30.1597 5.28122L28.346 7.50829C28.5719 7.66969 28.7886 7.8386 28.9953 8.01449L31.8546 6.68821L29.61 8.58781C29.8015 8.78399 29.9817 8.98705 30.1499 9.19642L33.2058 8.31278L30.6141 9.83774C30.676 9.93308 30.7354 10.0295 30.7924 10.1269H28.582C27.0586 8.2499 24.2743 6.99327 21.092 6.99327C17.9097 6.99327 15.1254 8.2499 13.602 10.1269H11.5022ZM14.8796 10.1269C16.3228 8.80372 18.589 7.95116 21.1372 7.95116C23.6854 7.95116 25.9516 8.80372 27.3948 10.1269H14.8796ZM33.9922 10.1269H34.1081L34.1698 10.1027L33.9922 10.1269ZM34.8168 13.9438L34.8256 13.9451L34.8168 13.9458V13.9438Z" clip-rule="evenodd"/></g></g></g></g></g></g></g><defs><filter id="filter0_dd_91_26277" width="42" height="30" x="0" y="0" color-interpolation-filters="sRGB" filterUnits="userSpaceOnUse"><feFlood flood-opacity="0" result="BackgroundImageFix"/><feColorMatrix in="SourceAlpha" result="hardAlpha" values="0 0 0 0 0 0 0 0 0 0 0 0 0 0 0 0 0 0 127 0"/><feOffset dy="1"/><feGaussianBlur stdDeviation="1"/><feColorMatrix values="0 0 0 0 0.0627451 0 0 0 0 0.0941176 0 0 0 0 0.156863 0 0 0 0.06 0"/><feBlend in2="BackgroundImageFix" result="effect1_dropShadow_91_26277"/><feColorMatrix in="SourceAlpha" result="hardAlpha" values="0 0 0 0 0 0 0 0 0 0 0 0 0 0 0 0 0 0 127 0"/><feOffset dy="1"/><feGaussianBlur stdDeviation="1.5"/><feColorMatrix values="0 0 0 0 0.0627451 0 0 0 0 0.0941176 0 0 0 0 0.156863 0 0 0 0.1 0"/><feBlend in2="effect1_dropShadow_91_26277" result="effect2_dropShadow_91_26277"/><feBlend in="SourceGraphic" in2="effect2_dropShadow_91_26277" result="shape"/></filter><clipPath id="clip0_91_26277"><rect width="36" height="24" x="3" y="2" fill="white" rx="2"/></clipPath></defs></svg>

<svg xmlns="http://www.w3.org/2000/svg" fill="none" aria-hidden="true" viewBox="0 0 42 30"><g filter="url(#a)"><g clip-path="url(#b)"><mask id="c" width="36" height="24" x="3" y="2" maskUnits="userSpaceOnUse" style="mask-type:alpha"><path fill="#fff" d="M3 2h36v24H3z"/></mask><g mask="url(#c)"><path fill="#E11C1B" fill-rule="evenodd" d="M3 2v24h36V2H3Z" clip-rule="evenodd"/><mask id="d" width="36" height="24" x="3" y="2" maskUnits="userSpaceOnUse" style="mask-type:alpha"><path fill="#fff" fill-rule="evenodd" d="M3 2v24h36V2H3Z" clip-rule="evenodd"/></mask><g fill-rule="evenodd" clip-rule="evenodd" mask="url(#d)"><path fill="#272727" d="M3 2v10h36V2H3Z"/><path fill="#5EAA22" d="M3 18v8h36v-8H3Z"/><path fill="#E11C1B" d="M7.502 13.946v-.002l-.01.001.01.001Zm.707-3.82h.116l-.178-.023.062.024Zm3.293 0c.06-.1.12-.2.185-.298L9.11 8.313l3.038.878c.17-.211.352-.416.546-.613l-2.233-1.89 2.845 1.32c.209-.177.428-.347.656-.51l-1.806-2.217 2.55 1.734c.237-.14.482-.273.735-.397l-1.3-2.481 2.153 2.102c.257-.102.52-.196.788-.282l-.732-2.665 1.668 2.404c.269-.063.542-.12.819-.167l-.122-2.754 1.109 2.623c.274-.026.551-.044.831-.054l.502-2.744.503 2.745c.28.01.556.028.83.055l1.11-2.625-.122 2.758c.276.048.548.104.816.168l1.67-2.409-.733 2.671c.267.086.528.18.783.282l2.16-2.108-1.305 2.49c.25.124.494.256.73.395l2.56-1.74-1.814 2.226c.226.162.443.33.65.506l2.859-1.326-2.245 1.9c.192.196.372.4.54.608l3.056-.883-2.592 1.525c.062.095.121.192.178.289h-2.21c-1.523-1.877-4.308-3.134-7.49-3.134-3.182 0-5.967 1.257-7.49 3.134h-2.1Zm3.378 0c1.443-1.322 3.709-2.175 6.257-2.175 2.548 0 4.815.853 6.258 2.176H14.88Zm19.112 0h.116l.062-.023-.178.024Zm.825 3.818.009.001h-.01v-.001Z"/></g></g></g></g><defs><clipPath id="b"><rect width="36" height="24" x="3" y="2" fill="#fff" rx="2"/></clipPath><filter id="a" width="42" height="30" x="0" y="0" color-interpolation-filters="sRGB" filterUnits="userSpaceOnUse"><feFlood flood-opacity="0" result="BackgroundImageFix"/><feColorMatrix in="SourceAlpha" result="hardAlpha" values="0 0 0 0 0 0 0 0 0 0 0 0 0 0 0 0 0 0 127 0"/><feOffset dy="1"/><feGaussianBlur stdDeviation="1"/><feColorMatrix values="0 0 0 0 0.0627451 0 0 0 0 0.0941176 0 0 0 0 0.156863 0 0 0 0.06 0"/><feBlend in2="BackgroundImageFix" result="effect1_dropShadow_91_26277"/><feColorMatrix in="SourceAlpha" result="hardAlpha" values="0 0 0 0 0 0 0 0 0 0 0 0 0 0 0 0 0 0 127 0"/><feOffset dy="1"/><feGaussianBlur stdDeviation="1.5"/><feColorMatrix values="0 0 0 0 0.0627451 0 0 0 0 0.0941176 0 0 0 0 0.156863 0 0 0 0.1 0"/><feBlend in2="effect1_dropShadow_91_26277" result="effect2_dropShadow_91_26277"/><feBlend in="SourceGraphic" in2="effect2_dropShadow_91_26277" result="shape"/></filter></defs></svg>
